!!!COM: Mozart, Wolfgang Amadeus
!!!OPR: Quartet in B-flat Major
!!!OTL: Allegro
!!!OMV: 2
!!!SCT: K 159
!!!SCA: Chronologisch-thematisches Verzeichnis sämtlicher Tonwerke Wolfgang Amade Mozarts (L. von Köchel; 1862, 2/1905, 3/1937, 1947)
!!!YOR: Breitkopf & Härtel Edition
!!!EED: Edmund Correia, Jr.
!!!ENC: Edmund Correia, Jr.
!!!CDT: 1756/1/27/-1791/12/5/
!!!OCY: Österreich
!!!YEC: Copyright (c) 1994, 2000 Center for Computer Assisted Research in the Humanities
!!!YEM: Rights to all derivative editions reserved.
!!!YEM: Refer to licensing agreement for further details.
!!!YEN: United States of America
**kern	**kern	**kern	**kern
*I:Violino 1	*I:Violino 2	*I:Viola	*I:Violoncello
*>[A,A,B,B]	*>[A,A,B,B]	*>[A,A,B,B]	*>[A,A,B,B]
*>A	*>A	*>A	*>A
*clefG2	*clefG2	*clefC3	*clefF4
*k[b-e-]	*k[b-e-]	*k[b-e-]	*k[b-e-]
*g:	*g:	*g:	*g:
*M3/4	*M3/4	*M3/4	*M3/4
! Allegro	! Allegro	! Allegro	! Allegro
*tb32	*tb32	*tb32	*tb32
=1-	=1-	=1-	=1-
4gg	8b-'	8G'	4GG
.	8g'	8B-'	.
4dd	8b-'	8d'	4r
.	8g'	8B-'	.
4dd	8b-'	8d'	4r
.	8g'	8B-'	.
=2	=2	=2	=2
(8.ddt	8b-'	8d'	4GG
.	8g'	8B-'	.
32cc#	.	.	.
32dd)	.	.	.
4r	8d'	8G'	4BB-
.	8g'	8B-'	.
4r	8b-'	8d'	4GG
.	8g'	8B-'	.
=3	=3	=3	=3
4aa	8cc'	8A'	4D
.	8a'	8f#'	.
4dd	8cc'	8a'	4r
.	8a'	8f#'	.
4dd	8cc'	8a'	4r
.	8a'	8f#'	.
=4	=4	=4	=4
(8.ddt	8cc'	8a'	4D
.	8a'	8f#'	.
32cc#	.	.	.
32dd)	.	.	.
4r	8d'	8A'	4F#
.	8a'	8d'	.
4r	8cc'	8a'	4D
.	8a'	8f#'	.
=5	=5	=5	=5
(4bb-	(4b-	2d	(4G
4aa)	4a)	.	4Fn)
4dd'	4d'	4r	4r
=6	=6	=6	=6
(4gg	(4g	2B-	(4E-
4ff)	4f)	.	4D)
4b-'	4B-'	4r	4r
=7	=7	=7	=7
(4gg	(4g	2B-	(4E-
4ff)	4f)	.	4D)
4b-'	4B-'	4r	4r
=8	=8	=8	=8
(4ee-	(4e-	2G	(4C
4dd)	4d)	.	4BB-)
(8.dd	(8.ddxx	(8.d	(8.d
16cck)	16cck)xx	16ck)	16ck)
=9	=9	=9	=9
4b-	4b-	4B-	4B-
4a	4a	4A	4A
4g	4g	4G	4G
=10	=10	=10	=10
(4f#	(4f#	(4F#	(4F#
4dd)	4dd)	4d)	4d)
4fn'	4fn'	4Fn'	4Fn'
=11	=11	=11	=11
(4en	(4en	(4En	(4En
4cc)	4cc)	4c)	4c)
4e-'xx	4e-'xx	4E-'	4E-'
=12	=12	=12	=12
4d'	4d'	4D'	4D'
4dd'	4dd'	4d'	4d'
4r	4r	4r	4r
=13	=13	=13	=13
(4bn	(4Bn	2.r	2.r
4cc	4c	.	.
4dd)	4d)	.	.
=14	=14	=14	=14
(4ee-	(4e-	2.r	2.r
4cc	4c	.	.
4a)	4A)	.	.
=15	=15	=15	=15
(4b-	(4B-	4r	4r
4gg	4g	(4d	(4B-
4ff	4f	4c	4A
=16	=16	=16	=16
4een	4en	4B-	4G
4ff	4f	4c)	4A)
4a)	4A)	4r	4r
=17	=17	=17	=17
(4g	(4G	4r	4r
4ee-	4e-	(4B-	(4G
4dd	4d	4A	4F
=18	=18	=18	=18
4cc#	4c#	4G	4En
4dd	4d)	4A)	4F)
4f)	4r	(4F	4r
=19	=19	=19	=19
(4e-	4r	4E-	4r
4ccn	(4cn	4G	(4E-
4b-	4B-	4F	4D
=20	=20	=20	=20
4a	4A	4E-	4C
4b-	4B-)	4F)	4D)
4ff)	4r	4r	4r
=21	=21	=21	=21
2.een	8b-	8g	8C
.	8b-	8g	8C
.	8b-	8g	8C
.	8b-	8g	8C
.	8b-	8g	8C
.	8b-	8g	8C
=22	=22	=22	=22
2.bb-	8g	8c	8En
.	8g	8c	8E
.	8g	8c	8E
.	8g	8c	8E
.	8g	8c	8E
.	8g	8c	8E
=23	=23	=23	=23
2.aa	8f	8c	8F
.	8f	8c	8F
.	8f	8c	8F
.	8f	8c	8F
.	8f	8c	8F
.	8f	8c	8F
=24	=24	=24	=24
2.ee-	8cc	8f	8A
.	8cc	8f	8A
.	8cc	8f	8A
.	8cc	8f	8A
.	8cc	8f	8A
.	8cc	8f	8A
=25	=25	=25	=25
4dd	4b-	4f	4B-
(16bb-	4r	4r	4r
16aa	.	.	.
16gg	.	.	.
16ff	.	.	.
16ee-	4r	4r	4r
16dd	.	.	.
16cc	.	.	.
16b-)	.	.	.
=26	=26	=26	=26
(2a-	8B-	(2A-	(2F
.	4B-	.	.
.	4B-	.	.
4f#)	.	4F#)	4D)
.	[8B-	.	.
=27	=27	=27	=27
4g	4B-]	4G'	4E-'
(16bb-	4r	4r	4r
16aa	.	.	.
16gg	.	.	.
16ff	.	.	.
16ee-	4r	4r	4r
16dd	.	.	.
16cc	.	.	.
16b-)	.	.	.
=28	=28	=28	=28
(2a-	8B-	(2A-	(2F
.	4B-	.	.
.	4B-	.	.
4f#)	.	4F#)	4D)
.	[8B-	.	.
=29	=29	=29	=29
4g	4B-]	4G	4E-
4r	4r	4r	4r
4r	4r	4r	4r
=30	=30	=30	=30
(4bn	(4Bn	2.r	2.r
4cc)	4c)	.	.
(4dd	(4d	.	.
=31	=31	=31	=31
4ee-)	4e-)	2.r	2.r
(4ff#	(4f#	.	.
4gg)	4g)	.	.
=32	=32	=32	=32
4ffn	4d	8Fn	2.r
.	.	8F	.
8r	8r	8F	.
8ff'	8dd'	8F	.
8ff'	8dd'	8F	.
8ff'	8dd'	8F	.
=33	=33	=33	=33
(4bb-	(4ff	8F	2.r
.	.	8F	.
4ff	4dd	8F	.
.	.	8F	.
4dd)	4bn)	8F	.
.	.	8F	.
=34	=34	=34	=34
4ee-	4cc	8F	2.r
.	.	8F	.
8r	8r	8F	.
8cc'	8a'	8F	.
8cc'	8a'	8F	.
8cc'	8a'	8F	.
=35	=35	=35	=35
(4ee-	(4cc	8F	2.r
.	.	8F	.
4cc	4e-	8F	.
.	.	8F	.
4a)	4c)	8F	.
.	.	8F	.
=36	=36	=36	=36
8b-	4d	4B-	4BB-
8B-	.	.	.
8B-	4r	4r	4D
8B-	.	.	.
8B-	4r	4r	4BB-
8B-	.	.	.
=37	=37	=37	=37
! 16cP/	!	!	!
(8B-	8r	4F	4F
16A	8c	.	.
16B-)	.	.	.
4A	8c	4A	4FF
.	8c	.	.
4r	8c	4F	4r
.	8c	.	.
=38	=38	=38	=38
!	! 16dP/	!	!
8r	(8c	4B-	4BB-
8d	16B-	.	.
.	16c)	.	.
8d	4B-	4B-	4D
8d	.	.	.
8d	4r	4r	4BB-
8d	.	.	.
=39	=39	=39	=39
! 16e-P/	!	!	!
(8d	8r	2A	4C
16c	8e-	.	.
16d)	.	.	.
4c	8e-	.	4c
.	8e-	.	.
4r	8e-	4c	4r
.	8e-	.	.
=40	=40	=40	=40
!	! 16fP/	! 16dP/	!
8r	(8e-	(8c	4D
8f	16d	16B-	.
.	16e-)	16c)	.
8f	4d	4B-	4F
8f	.	.	.
8f	4r	[4b-	4D
8f	.	.	.
=41	=41	=41	=41
! 16gP/	!	!	!
(8f	8r	4b-]	4E-
16e-	8g	.	.
16f)	.	.	.
8e-	8g	8r	4C
8ee-	8g	8c	.
8ee-	8g	8c	4r
8ee-	8g	8c	.
=42	=42	=42	=42
8aa	4f	4c	4F
8ee-	.	.	.
8ccc	8r	4r	4A
8ee-	8f	.	.
8eee-	8f	4r	4c
8ee-	8f	.	.
=43	=43	=43	=43
8ccc	8a	4F	4A
8ee-	8f	.	.
8aa	8cc	4A	4F
8ee-	8f	.	.
8ee-	8ee-	4c	4r
8ee-	8f	.	.
=44	=44	=44	=44
8aa	8cc	4A	4FF
8ee-	8f	.	.
8ccc	8a	4F	4AA
8ee-	8f	.	.
8eee-	8f	4r	4C
8ee-	8f	.	.
=45	=45	=45	=45
8ccc	8a	4f	4AA
8ee-	8f	.	.
8aa	8cc	4a	4FF
8ee-	8f	.	.
8ee-	8ee-	4cc	4r
8ee-	8f	.	.
=46	=46	=46	=46
8aa	8cc	4a	4F
8ee-	8f	.	.
8ccc	8a	4f	4A
8ee-	8f	.	.
8eee-	8f	4a	4c
8ee-	8f	.	.
=47	=47	=47	=47
8ddd	4ff	4b-	4B-
8b-	.	.	.
8cc	4r	4r	4r
8dd	.	.	.
8ee-	4r	4r	4r
8ff	.	.	.
=48	=48	=48	=48
(4ff#	(4cc	(4a	(4D
4gg)	4b-)	4g)	4E-)
4r	4r	4r	4r
=49	=49	=49	=49
4gg	4ee-	4b-	4E-
4ffn	4dd	4B-	4F
4aa 4cc 4f	4cc 4f	4e-	4FF
=50	=50	=50	=50
8bb- 8dd 8f	4b- 4d	4d	4BB-
8b-	.	.	.
8cc	4r	4r	4r
8dd	.	.	.
8ee-	4r	4r	4r
8ff	.	.	.
=51	=51	=51	=51
(4ff#	(4cc	(4a	(4D
4gg)	4b-)	4g)	4E-)
4r	4r	4r	4r
=52	=52	=52	=52
4gg	4ee-	4b-	4E-
4ffn	4dd	4B-	4F
4aa 4cc 4f	4cc 4f	4e-	4FF
=53	=53	=53	=53
4bb- 4dd 4f	4b- 4d	4d	4BB-
4r	4r	4r	4r
4f'	4f'	4r	4r
=54	=54	=54	=54
(4dd-	(4b-	2f	(4B-
4cc)	4a)	.	4F)
4f'	4f'	4r	4r
=55	=55	=55	=55
(4ee-	(4cc	2f	(4A
4dd-)	4b-)	.	4B-)
4f'	4f'	4r	4r
=56	=56	=56	=56
(4gg-	(4ee-	(4a	(4c
4ff)	4dd-)	4b-)	4d-)
4b-'	4b-'	4r	4r
=57	=57	=57	=57
(4ddd-	(4bb-	(4en	(4En
4ccc)	4aa)	4f)	4F)
4r	(4f#	4r	4r
=58	=58	=58	=58
2.r	4g	2.r	2.r
.	4a	.	.
.	4b-)	.	.
=59	=59	=59	=59
2.r	4c	(8B-	4En
.	.	8G	.
.	(8.c	8B-	4E
.	.	8G	.
.	16dk)	.	.
.	(8.c	8B-	4E
.	.	8G)	.
.	16dk)	.	.
=60	=60	=60	=60
2.r	(4c	(4A	(4F
.	4g	4e-	4A
.	4f)	4d)	4B-)
=61	=61	=61	=61
!	! 16fP/	! 16dP/	!
4r	(4e-	(4c	(4E-
4r	4d	4B-	4F
(4ff#	4c)	4A)	4D)
=62	=62	=62	=62
4gg	(4B-	(4G	(4E-
4aa	4e-	4c	4F
4bb-)	4d)	4B-)	4G)
=63	=63	=63	=63
4cc	(8b-	(8g	4En
.	8g	8en	.
(8.cc	8b-	8g	4E
.	8g	8e	.
16ddk)	.	.	.
(8.cc	8b-	8g	4E
.	8g)	8B-)	.
16ddk)	.	.	.
=64	=64	=64	=64
(4cc	(4f	(4A	(4E-
4gg	4ee-	4c	4AA
4ff)	4dd)	4d)	4BB-)
=65	=65	=65	=65
! 16ffP/	! 16ddP/	!	!
4ee-	4cc	4g	4E-
4dd	4b-	4f	4F
4cc	4a	4e-	4FF
=66	=66	=66	=66
4b-	4b-	4d'	4BB-
(16ggK	(16gK	4r	4r
8.ff)	8.f)	.	.
(16eenK	(16enK	4d'	4B-'
8.ff)	8.f)	.	.
=67	=67	=67	=67
(16ggK	(16gK	4c'	4A'
8.ff)	8.f)	.	.
(16eenK	(16enK	4r	4r
8.ff)	8.f)	.	.
(16ggK	(16gK	4e-'	4c'
8.ff)	8.f)	.	.
=68	=68	=68	=68
(16eenK	(16enK	4d'	4B-'
8.ff)	8.f)	.	.
(16bb-K	(16b-K	4r	4r
8.aa)	8.a)	.	.
(16ggK	(16gK	4B-'	4D'
8.ff)	8.f)	.	.
=69	=69	=69	=69
(16ddK	(16dK	(2G	4C'
8.ee-)	8.e-)	.	.
(16bnK	(16BnK	.	4r
8.cc)	8.c)	.	.
(16ffK	(16fK	4A)	4FF'
8.ee-)	8.e-)	.	.
=70	=70	=70	=70
(16cc#K	(16c#K	(16AK	4BB-'
8.dd)	8.d)	8.B-)	.
(16eenK	(16enK	4r	4r
8.ff)	8.f)	.	.
(16ggK	(16gK	4d'	4B-'
8.ff)	8.f)	.	.
=71	=71	=71	=71
(16eenK	(16enK	4c'	4A'
8.ff)	8.f)	.	.
(16ggK	(16gK	4r	4r
8.ff)	8.f)	.	.
(16eeK	(16eK	4e-'	4c'
8.ff)	8.f)	.	.
=72	=72	=72	=72
(16ggK	(16gK	4d	4B-'
8.ff)	8.f)	.	.
(16bb-K	(16b-K	(16gK	4r
8.aa)	8.a)	8.f)	.
(16ggK	(16gK	(16e-K	4r
8.ff)	8.f)	8.d)	.
=73	=73	=73	=73
(16ff#K	(16f#K	(16dK	4E-
8.gg)	8.g)	8.e-)	.
(16ffnK	(16fnK	(16dK	4F
8.ee-)	8.e-)	8.c)	.
(16ddK	(16dK	(16B-K	4FF
8.cc)	8.c)	8.A)	.
=74	=74	=74	=74
8b-	8B-	(16B-	4BB-
.	.	16c	.
4ddd	4bb-	16d	.
.	.	16e-)	.
.	.	4f'	8D
4ddd	4bb-	.	8C
.	.	4r	8D
8ddd	8bb-	.	8BB-
=75	=75	=75	=75
8r	8r	(16a	4F
.	.	16g	.
4ccc	4aa	16f	.
.	.	16e-)	.
.	.	4d'	8F#
4ccc	4aa	.	8En
.	.	4r	8F#
8ccc	8aa	.	8D
=76	=76	=76	=76
8r	8r	(16G	4G
.	.	16A	.
4bb-	4gg	16B-	.
.	.	16c)	.
.	.	4d'	8BB-
4bb-	4gg	.	8AA
.	.	4r	8BB-
8bb-	8gg	.	8GG
=77	=77	=77	=77
8r	8r	(16f	4D
.	.	16e-	.
4aa-	4ff	16d	.
.	.	16c)	.
.	.	4B-'	8D
4aa-	4ff	.	8C
.	.	4r	8D
8aa-	8ff	.	8BB-
=78	=78	=78	=78
8r	8r	(16e-	4E-
.	.	16f	.
4gg	4ee-	16g	.
.	.	16a)	.
.	.	4b-'	8G
4gg	4ee-	.	8F
.	.	4r	8G
8gg	8ee-	.	8E-
=79	=79	=79	=79
8r	8r	(16d	4G
.	.	16c	.
4ffn	4dd	16Bn	.
.	.	16A)	.
.	.	4G'	8BBn
4ff	4dd	.	8AA
.	.	4r	8BB
8ff	8dd	.	8GG
=80	=80	=80	=80
8ee-	8ee-	8g	4C
8dd	8dd	8f	.
8cc	8cc	8e-	4r
8b-	8b-	8d	.
8a	8a	8c	4r
8g	8g	8B-	.
=81	=81	=81	=81
8f#	4d	(4A	(4C
8dd	.	.	.
8g	4dd	4B-	4BB-
8dd	.	.	.
8a	4dd	4c	4AA
8dd	.	.	.
=82	=82	=82	=82
8b-	(4dd	4d	4GG
8dd	.	.	.
8a	4ff#	4c	4AA
8dd	.	.	.
8g	4gg)	4B-)	4BB-)
8dd	.	.	.
=83	=83	=83	=83
8f#	4d	(4A	(4C
8dd	.	.	.
8g	4dd	4B-	4BB-
8dd	.	.	.
8a	4dd	4c	4AA
8dd	.	.	.
=84	=84	=84	=84
8b-	(4dd	4d	4GG
8dd	.	.	.
8a	4ff#	4c	4AA
8dd	.	.	.
8g	4gg)	4B-)	4BB-)
8dd	.	.	.
=85	=85	=85	=85
8f#	8f#	4f#'	4F#'
8dd	8dd	.	.
8g	8g	4g'	4G'
8dd	8dd	.	.
8a	8a	4a'	4A'
8dd	8dd	.	.
=86	=86	=86	=86
8b-	8b-	4b-'	4B-'
8dd	8dd	.	.
8a	8a	4a'	4A'
8dd	8dd	.	.
8g	8g	4g'	4G'
8dd	8dd	.	.
=87	=87	=87	=87
4f#	4f#	4f#	4F#
4ff# 4a 4d	4dd 4d	4cc	4c
4aa 4a 4d	4ff# 4a 4d	4a	4A
=88	=88	=88	=88
4ccc 4a 4d	4aa 4a 4d	4f#	4F#
4r	4r	4r	4r
4r	4r	4r	4r
=89:!!:	=89:!!:	=89:!!:	=89:!!:
*>B	*>B	*>B	*>B
(4gg	(4dd	4r	4r
4dd)	4g)	(4d	(4Bn
4r	4r	4Bn)	4G)
=90	=90	=90	=90
(4gg	(4ee-	4r	4r
4ee-)	4cc)	(4g	(4E-
4r	4r	4e-)	4C)
=91	=91	=91	=91
(4aa-	(4c	(2d	4Fn
4gg	4Bn	.	4G
4bn)	4d)	4fn)	4GG
=92	=92	=92	=92
(4bn	(4fn	(4d	2C
4cc)	4e-)	4c)	.
(8.ddt	4r	4r	4r
32cc	.	.	.
32dd)	.	.	.
=93	=93	=93	=93
(4ee-	2.r	2.r	2.r
4een	.	.	.
4ff)	.	.	.
=94	=94	=94	=94
(8ff#	2.r	2.r	2.r
8gg)	.	.	.
(8ffn	.	.	.
8ee-	.	.	.
8dd	.	.	.
8cc)	.	.	.
=95	=95	=95	=95
(4ff	(4cc	4r	4r
4cc)	4f)	(4c	(4A
4r	4r	4A)	4F)
=96	=96	=96	=96
(4ff	(4dd	4r	4r
4dd)	4b-)	(4f	(4d
4r	4r	4d)	4B-)
=97	=97	=97	=97
(4gg	(4B-	(2c	4E-
4ff)	4A	.	4F
4a	4c)	4e-)	4FF
=98	=98	=98	=98
(4a	(4e-	(4c	2BB-
4b-)	4d)	4B-)	.
(8.ccT	4f'	4A	4r
32b-	.	.	.
32cc)	.	.	.
=99	=99	=99	=99
(4cc#	2f	2.B-	4r
4dd	.	.	(4B-
4ee-)	4b-	.	4G)
=100	=100	=100	=100
(4bn	2e-	2.A	4r
4ccn	.	.	(4A
8dd	(8a	.	4F#)
8a)	8f#)	.	.
=101	=101	=101	=101
(8cc	4d	4G	4G
8b-	.	.	.
8a	4r	4r	4Fn
8g	.	.	.
8f#	4r	4r	4E-
8g)	.	.	.
=102	=102	=102	=102
(4a	(2f#	4r	(2D
4d)	.	4A	.
4d'	4A	[4d	4F#
=103	=103	=103	=103
[2.e-	4B-	4d]	4G
.	4c	4c	4A
.	4B-)	4c	4G)
=104	=104	=104	=104
(4e-]	2.A	(4c	2.F#
4d)	.	4A)	.
4d'	.	[4d	.
=105	=105	=105	=105
[2.e-	(4B-	4d]	(4G
.	4c	4c	4A
.	4B-)	4c	4G)
=106	=106	=106	=106
(4e-]	2.A	(4c	2.F#
4d)	.	4A)	.
4d'	.	[4d	.
=107	=107	=107	=107
[2.e-	(4B-	4d]	(4G
.	4c	4c	4A
.	4B-)	4c	4G)
=108	=108	=108	=108
(4e-]	2A	2c	2F#
4d)	.	.	.
4r;	4r;	4r;	4r;
=109	=109	=109	=109
4gg 4b- 4d 4G	8b-'	8G'	4G
.	8g'	8B-'	.
4dd	8b-'	8d'	4r
.	8g'	8B-'	.
4dd	8b-'	8d'	4r
.	8g'	8B-'	.
=110	=110	=110	=110
(8.ddt	8b-'	8d'	4GG
.	8g'	8B-'	.
32cc#	.	.	.
32dd)	.	.	.
4r	8d'	8G'	4BB-
.	8g'	8B-'	.
4r	8b-'	8d'	4GG
.	8g'	8B-'	.
=111	=111	=111	=111
4aa 4a 4d	8cc'	8A'	4D
.	8a'	8f#'	.
4dd	8cc'	8a'	4r
.	8a'	8f#'	.
4dd	8cc'	8a'	4r
.	8a'	8f#'	.
=112	=112	=112	=112
(8.ddt	8cc'	8a'	4D
.	8a'	8f#'	.
32cc#	.	.	.
32dd)	.	.	.
4r	8d'	8A'	4F#
.	8a'	8d'	.
4r	8cc'	8a'	4D
.	8a'	8f#'	.
=113	=113	=113	=113
(4bb-	(4b-	2d	(4G
4aa)	4a)	.	4Fn)
4dd'	4d'	4r	4r
=114	=114	=114	=114
(4gg	(4g	2B-	(4E-
4ff)	4fn)	.	4D)
4b-'	4B-'	4r	4r
=115	=115	=115	=115
(4gg	(4g	2B-	(4E-
4ff)	4f)	.	4D)
4b-'	4B-'	4r	4r
=116	=116	=116	=116
(4ee-	(4e-	2G	(4C
4dd)	4d)	.	4BB-)
(8.dd	(8.dd	(8.d	(8.d
16cck)	16cck)	16ck)	16ck)
=117	=117	=117	=117
4b-	4b-	4B-	4B-
4a	4a	4A	4A
4g	4g	4G	4G
=118	=118	=118	=118
(4f#	(4f#	(4F#	(4F#
4dd)	4dd)	4d)	4d)
4fn'	4fn'	4Fn'	4Fn'
=119	=119	=119	=119
(4en	(4en	(4En	(4En
4cc)	4cc)	4c)	4c)
4e-'	4e-'	4E-'	4E-'
=120	=120	=120	=120
4d'	4d'	4D'	4D'
4dd'	4dd'	4d'	4d'
4r	4r	4r	4r
=121	=121	=121	=121
(4ff#	(4f#	2.r	2.r
4gg	4g	.	.
4dd)	4d)	.	.
=122	=122	=122	=122
(4ffn	(4fn	2.r	2.r
4dd	4d	.	.
4bn)	4Bn)	.	.
=123	=123	=123	=123
4cc'	4c'	4r	4r
(4aa-	(4a-	(4e-	(4c
4gg	4g	4d	4B-
=124	=124	=124	=124
4ff#	4f#	4c	4A
4gg	4g	4d)	4B-)
4b-)	4B-)	4r	4r
=125	=125	=125	=125
(4a-	(4A-	4r	4r
4ffn	4fn	(4c	(4A-
4ee-	4e-	4B-	4G
=126	=126	=126	=126
4dd	4d	4A-	4F
4ee-	4e-)	4B-)	4G)
4g)	4r	(4G	4r
=127	=127	=127	=127
(4f	4r	4F	4r
4dd-	(4d-	4A-	(4F
4cc	4c	4G	4E-
=128	=128	=128	=128
4bn	4Bn	4F	4D
4cc)	4c)	4G)	4E-)
4g	4r	4r	4r
=129	=129	=129	=129
2.f#	8c	8An	8D
.	8c	8A	8D
.	8c	8A	8D
.	8c	8A	8D
.	8c	8A	8D
.	8c	8A	8D
=130	=130	=130	=130
2.cc	8an	8d	8FF#
.	8a	8d	8FF#
.	8a	8d	8FF#
.	8a	8d	8FF#
.	8a	8d	8FF#
.	8a	8d	8FF#
=131	=131	=131	=131
2.bn	8dn	8g	8GG
.	8d	8g	8GG
.	8d	8g	8GG
.	8d	8g	8GG
.	8d	8g	8GG
.	8d	8g	8GG
=132	=132	=132	=132
2.ff	8bn	8d	8G
.	8b	8d	8G
.	8b	8d	8G
.	8b	8d	8G
.	8b	8d	8G
.	8b	8d	8G
=133	=133	=133	=133
4ee-	4cc	4c	4C
(16gg	4r	4r	4r
16ff	.	.	.
16ee-	.	.	.
16dd	.	.	.
16cc	4r	4r	4r
16b-	.	.	.
16a	.	.	.
16g)	.	.	.
=134	=134	=134	=134
(2f#	(2e-	(2c	(2AAn
4fn)	4d)	4A-)	4BBn)
=135	=135	=135	=135
4e-	4c	4G	4C
(16gg	4r	4r	4r
16ff	.	.	.
16ee-	.	.	.
16dd	.	.	.
16cc	4r	4r	4r
16b-	.	.	.
16a	.	.	.
16g)	.	.	.
=136	=136	=136	=136
(2f#	(2e-	(2c	(2AA
4fn)	4d)	4A-)	4BBn)
=137	=137	=137	=137
4e-	4c	4G	4C
4r	4r	4r	4r
4r	4r	4r	4r
=138	=138	=138	=138
(4aa-	(4a-	2.r	2.r
4een	4en	.	.
4ff	4f	.	.
=139	=139	=139	=139
4cc#	4c#	2.r	2.r
4dd	4d	.	.
4ff)	4f)	.	.
=140	=140	=140	=140
4ee-	4e-	8G	2.r
.	.	8G	.
8r	8r	8G	.
8ee-	8cc	8G	.
8ee-	8cc	8G	.
8ee-	8cc	8G	.
=141	=141	=141	=141
(4gg	(4ee-	8G	2.r
.	.	8G	.
4ee-	4cc	8G	.
.	.	8G	.
4ccn)	4e-)	8G	.
.	.	8G	.
=142	=142	=142	=142
4bn	4d	8G	2.r
.	.	8G	.
8r	8r	8G	.
8dd	8bn	8G	.
8dd	8b	8G	.
8dd	8b	8G	.
=143	=143	=143	=143
(4ff	(4dd	8G	2.r
.	.	8G	.
4dd	4f	8G	.
.	.	8G	.
4bn)	4d)	8G	.
.	.	8G	.
=144	=144	=144	=144
8cc	4e-	4G	4C
8c	.	.	.
8c	4r	4r	4E-
8c	.	.	.
8c	4r	4r	4C
8c	.	.	.
=145	=145	=145	=145
! 16dP/	!	!	!
(8c	8r	4G	4G
16Bn	8d	.	.
16c)	.	.	.
4B	8d	4Bn	4GG
.	8d	.	.
4r	8d	4G	4r
.	8d	.	.
=146	=146	=146	=146
!	! 16e-P/	!	!
8r	(8d	4c	4C
8e-	16c	.	.
.	16d)	.	.
8e-	4c	4C	4r
8e-	.	.	.
8e-	4r	4r	4C
8e-	.	.	.
=147	=147	=147	=147
! 16fP/	!	!	!
(8e-	8r	2F	4D
16d	8f	.	.
16e-)	.	.	.
4d	8f	.	4DD
.	8f	.	.
4r	8f	4Bn	4D
.	8f	.	.
=148	=148	=148	=148
!	! 16gP/	!	!
8r	(8f	(4Bn	4E-
8g	16e-	.	.
.	16f)	.	.
8g	4e-	4c)	4G
8g	.	.	.
8g	4r	4e-'	4c
8g	.	.	.
=149	=149	=149	=149
! 16ccP/	!	!	!
(8b-	8r	4g	4E-
16a	8cc#	.	.
16b-)	.	.	.
4g	8cc#	4B-	4EE-
.	8cc#	.	.
4gg	8cc#	(8B-	4E-
.	8cc#	8G)	.
=150	=150	=150	=150
!	! 16ee-P/	!	!
4ff#	(8dd	4An	4D
.	16cc#xxx	.	.
.	16dd)	.	.
8r	8an	8f#	4r
8cc	8a	8f#	.
8cc	8a	8f#	4r
8cc	8a	8f#	.
=151	=151	=151	=151
8ff#	4a	4c	4D
8cc	.	.	.
8aan	8r	4r	4F#
8cc	8c	.	.
8ccc	8c	4r	4A
8cc	8c	.	.
=152	=152	=152	=152
8aa	8f#	4D	4F#
8cc	8c	.	.
8ff#	8a	4F#	4D
8cc	8c	.	.
8cc	8cc	4A	4r
8cc	8c	.	.
=153	=153	=153	=153
8ff#xxx	8a	4F#	4DD
8ccx	8c	.	.
8aax	8f#	4D	4FF#
8ccx	8c	.	.
8cccx	8c	4r	4AA
8ccx	8c	.	.
=154	=154	=154	=154
8aax	8f#	4d	4FF#
8ccx	8c	.	.
8ff#x	8a	4f#	4DD
8ccx	8c	.	.
8ccx	8cc	4a	4r
8ccx	8c	.	.
=155	=155	=155	=155
8ff#x	8a	4f#	4D
8ccx	8c	.	.
8aax	8f#	4d	4F#
8ccx	8c	.	.
8cccx	(8c	4f#	4A
8ccx	8d)	.	.
=156	=156	=156	=156
8bb-x	4d	4g	4G
8gx	.	.	.
8ax	4r	4r	4r
8b-x	.	.	.
8ccx	4r	4r	4r
8ddx	.	.	.
=157	=157	=157	=157
(4ee-	(4cc	(4a	(4F#
4dd)	4b-)	4d)	4G)
4r	4r	4r	4r
=158	=158	=158	=158
! 16ddP/	! 16b-P/	!	!
4cc	4a	(4e-	4C
(4b-	(4g	4d	4D
4a)	4f#)	4c)	4D
=159	=159	=159	=159
8b-	4g	4B-	4G
8bb-	.	.	.
8gg	4r	4r	4r
8ffn	.	.	.
8ee-	4r	4r	4r
8dd	.	.	.
=160	=160	=160	=160
(4cc	(4a	(4f#	(4D
4b-)	4g)	4g)	4E-)
4r	4r	4r	4r
=161	=161	=161	=161
! 16b-P/	!	!	!
4a-	(4e-	(4c	4C
(4g	4d	4B-	4D
4f#)	4c)	4A)	4DD
=162	=162	=162	=162
4g	4B-	4G	4GG
4r	4r	4r	4r
4d	4r	4r	4r
=163	=163	=163	=163
(4f#	(4e-	(4c	(4A
4g)	4d)	4d)	4B-)
4d'	4r	4r	4r
=164	=164	=164	=164
(4cc	(4a	(4e-	(4F#
4b-)	4g)	4d)	4G)
4g'	4r	4r	4r
=165	=165	=165	=165
(4ee-	(4a	(4f#	(4C
4dd)	4b-)	4g)	4BB-)
4g'	4r	4r	4r
=166	=166	=166	=166
(4bb-	(4gg	(4en	(4C#
4aa)	4ff#)	4f#)	4D)
4r	4d	4r	4r
=167	=167	=167	=167
2.r	(4e-	2.r	2.r
.	4f#	.	.
.	4g)	.	.
=168	=168	=168	=168
2.r	[4A	(8G	4C#
.	.	8En	.
.	(8.A]	8G	4C#
.	.	8E	.
.	16B-k	.	.
.	8.A	8G	4C#
.	.	8E)	.
.	16B-k)	.	.
=169	=169	=169	=169
2.r	(4A	(4F#	(4D
.	4e-	4c	4F#
.	4d)	4B-)	4G)
=170	=170	=170	=170
!	! 16dP/	! 16B-P/	!
4r	(4c	(4A	(4Cn
4r	4B-	4G	4D
(4dd	4A-)	4Fn)	4BBn)
=171	=171	=171	=171
4ee-	(4G	(4E-	(4C
4ff#	4c	4A	4D
4gg)	4B-)	4G)	4E-)
=172	=172	=172	=172
[4a	(8g	(8en	4C#
.	8en	8c#	.
(8.a]	8g	8e	4C#
.	8e	8c#	.
16b-k	.	.	.
8.a	8g	8e	4C#
.	8e)	8G)	.
16b-k)	.	.	.
=173	=173	=173	=173
(4a	4d	(4F#	(4D
4ee-	(4cc	4A	4F#
4dd)	4b-)	4B-)	4G)
=174	=174	=174	=174
! 16ddP/	! 16b-P/	!	!
4cc	4a	4e-	4c
4b-	4g	4d	4d
4a	4f#	4cn	4D
=175	=175	=175	=175
4g	4g	4B-'	4G'
(16ee-K	(16e-K	4r	4r
8.dd)	8.d)	.	.
(16cc#K	(16c#K	4B-'	4G'
8.dd)	8.d)	.	.
=176	=176	=176	=176
(16ee-K	(16e-K	4A'	4F#'
8.dd)	8.d)	.	.
(16cc#K	(16c#K	4r	4r
8.dd)	8.d)	.	.
(16ee-K	(16e-K	4c'	4A'
8.dd)	8.d)	.	.
=177	=177	=177	=177
(16cc#K	(16c#K	4B-'	4G'
8.dd)	8.d)	.	.
(16ggK	(16gK	4r	4r
8.ff)	8.f)	.	.
(16ee-K	(16e-K	[4G	4BB-
8.dd)	8.d)	.	.
=178	=178	=178	=178
(16bnK	(16BnK	4G]	4AA
8.ccn)	8.cn)	.	.
(16g#K	(16G#K	4F#	4D
8.a)	8.A)	.	.
(16ddK	(16dK	4A	4FF#
8.cc)	8.c)	.	.
=179	=179	=179	=179
(16aK	(16AK	(16F#K	4GG
8.b-)	8.B-)	8.G)	.
(16cc#K	(16c#K	4r	4r
8.dd)	8.d)	.	.
(16ee-K	(16e-K	4B-'	4G'
8.dd)	8.d)	.	.
=180	=180	=180	=180
(16cc#K	(16c#K	4A'	4F#'
8.dd)	8.d)	.	.
(16ee-K	(16e-K	4r	4r
8.dd)	8.d)	.	.
(16cc#K	(16c#K	4c'	4A'
8.dd)	8.d)	.	.
=181	=181	=181	=181
(16ee-K	(16e-K	4B-'	4G'
8.dd)	8.d)	.	.
(16ggK	(16gK	4r	4r
8.ff)	8.f)	.	.
(16ee-K	(16e-K	4G	4BB-
8.dd)	8.d)	.	.
=182	=182	=182	=182
(16ddK	(16dK	(16BnK	4C
8.ee-)	8.e-)	8.c)	.
(16ddK	(16dK	(16B-K	4D
8.ccn)	8.cn)	8.A)	.
(16b-K	(16B-K	(16GK	4DD
8.a)	8.A)	8.F#)	.
=183	=183	=183	=183
8g	8G	(16G	4GG
.	.	16A	.
4bb-	4gg	16B-	.
.	.	16c)	.
.	.	4d'	8BB-
4bb-	4gg	.	8AA
.	.	4r	8BB-
8bb-	8gg	.	8GG
=184	=184	=184	=184
8r	8r	(16a	4D
.	.	16g	.
4aa	4ff#	16f#	.
.	.	16en)	.
.	.	4d'	8D
4aa	4ff#	.	8E-
.	.	4r	8D
8aa	8ff#	.	8C
=185	=185	=185	=185
8r	8r	(16d	4BBn
.	.	16e-	.
4aa-	4ffn	16fn	.
.	.	16e-)	.
.	.	4d'	8Bn
4aa-	4ff	.	8c
.	.	4r	8d
8aa-	8ff	.	8B
=186	=186	=186	=186
8r	8r	(16c	4c
.	.	16d	.
4gg	4een	16en	.
.	.	16d)	.
.	.	4c'	8C
4gg	4ee	.	8D
.	.	4r	8C
8gg	8ee	.	8BB-
=187	=187	=187	=187
8r	8r	(16c	4AA
.	.	16d	.
4ff#	4ee-	16e-	.
.	.	16d)	.
.	.	4c'	8A
4ff#	4ee-	.	8B-
.	.	4r	8c
8ff#	8ee-	.	8A
=188	=188	=188	=188
8r	8r	(16B-	4B-
.	.	16c	.
4gg	4dd	16d	.
.	.	16c)	.
.	.	4B-'	8G
4gg	4dd	.	8A
.	.	4r	8B-
8gg	8dd	.	8BB-
=189	=189	=189	=189
8ee-	8ee-	8g	4C
8dd	8dd	8f	.
8cc	8cc	8e-	4r
8b-	8b-	8d	.
8a	8a	8c	4r
8g	8g	8B-	.
=190	=190	=190	=190
8f#	4d	(4A	(4C
8dd	.	.	.
8g	4dd	4B-	4BB-
8dd	.	.	.
8a	4dd	4c)	4AA)
8dd	.	.	.
=191	=191	=191	=191
8b-	(4dd	(4d	(4GG
8dd	.	.	.
8a	4ff#	4c	4AA
8dd	.	.	.
8g	4gg)	4B-)	4BB-)
8dd	.	.	.
=192	=192	=192	=192
8f#	8f#	4f#'	4F#'
8dd	8dd	.	.
8g	8g	4g'	4G'
8dd	8dd	.	.
8a	8a	4a'	4A'
8dd	8dd	.	.
=193	=193	=193	=193
8b-	8b-	4b-'	4B-'
8dd	8dd	.	.
8a	8a	4a'	4A'
8dd	8dd	.	.
8g	8g	8b-'	8G'
16a	16a	8a'	8Fn'
16b-	16b-	.	.
=194	=194	=194	=194
8cc	8cc	8g'	8E-'
8dd	8dd	8fn'	8D'
4ee-	4ee-	8e-'	8C'
.	.	8c'	8AA'
4ff# 4a 4d	4ff# 4a 4d	8A'	8D'xx
.	.	8d'	8DD'xx
=195	=195	=195	=195
2gg 2b- 2d	2gg 2b- 2d	2d 2B-	2GG
4r	4r	4r	4r
==:|!	==:|!	==:|!	==:|!
*-	*-	*-	*-
!!!RWG: Appoggiaturas of spine 'Violino 1' need manual editing in measures: 37, 39, 41, 65, 145, 147, 149, 158, 161, 174
!!!RWG: Appoggiaturas of spine 'Violino 2' need manual editing in measures: 38, 40, 61, 65, 146, 148, 150, 158, 170, 174
!!!RWG: Appoggiaturas of spine 'Viola' need manual editing in measures: 40, 61, 170
!!!RWG: Key is interpreted using the Humdrum key tool.
!!!AFT: stage2
!!!END: 1994/06/16
!!format changes:
!!content changes:
!!public access: complete
!!!KEY: 2139995797
!!!EMD: Converted from MuseData to Humdrum Dec 16, 2000, by Andreas Kornstaedt using muse2kern.
